rospo-icon-theme-classic-common/24x24/apps/qomp.svg

<svg height="24" width="24" xmlns="http://www.w3.org/2000/svg"><circle cx="12" cy="12" fill="#2f67ba" r="10"/><rect height="14" opacity=".2" rx="7" transform="matrix(0 -1 -1 0 0 0)" width="14" x="-19.5" y="-19"/><rect fill="#4bd076" height="14" rx="7" transform="matrix(0 -1 -1 0 0 0)" width="14" x="-19" y="-19"/><path d="m489 183v8.1875c-.32-.12-.64-.19-1-.19-1.6568 0-3 1.3432-3 3s1.3432 3 3 3 3-1.3432 3-3v-7h6v4.1875c-.32-.12-.64-.19-1-.19-1.6568 0-3 1.3432-3 3s1.3432 3 3 3 3-1.3432 3-3v-11h-1z" opacity=".2" transform="matrix(.5 0 0 .5 -234.5 -82.99975)"/><path d="m489 183v8.1875c-.32-.12-.64-.19-1-.19-1.6568 0-3 1.3432-3 3s1.3432 3 3 3 3-1.3432 3-3v-7h6v4.1875c-.32-.12-.64-.19-1-.19-1.6568 0-3 1.3432-3 3s1.3432 3 3 3 3-1.3432 3-3v-11h-1z" fill="#3f3f3f" transform="matrix(.5 0 0 .5 -234.5 -83.49975)"/><path d="m12 2a10 10 0 0 0 -10 10 10 10 0 0 0  .0107.291 10 10 0 0 1 9.9893-9.791 10 10 0 0 1 9.989 9.709 10 10 0 0 0  .011-.209 10 10 0 0 0 -10-10z" fill="#fff" opacity=".2"/><path d="m21.989 12.209a10 10 0 0 1 -9.989 9.791 10 10 0 0 1 -9.9893-9.709 10 10 0 0 0 -.0107.209 10 10 0 0 0 10 10 10 10 0 0 0 10-10 10 10 0 0 0 -.01074-.29102z" opacity=".2"/><path d="m12 5c-3.878 0-7 3.122-7 7 0 .084525.0087769.166218.0117188.25.1320286-3.7601381 3.1948063-6.75 6.9882812-6.75 3.793475 0 6.856253 2.9898619 6.988281 6.75.002942-.083782.011719-.165475.011719-.25 0-3.878-3.122-7-7-7z" fill="#fff" opacity=".2"/></svg>

<svg xmlns="http://www.w3.org/2000/svg" width="24" height="24" version="1">
 <circle style="fill:#2f67ba" cx="12" cy="12" r="10"/>
 <rect style="opacity:0.2" width="14" height="14" x="-19.5" y="-19" rx="7" ry="7" transform="matrix(0,-1,-1,0,0,0)"/>
 <rect style="fill:#4bd076" width="14" height="14" x="-19" y="-19" rx="7" ry="7" transform="matrix(0,-1,-1,0,0,0)"/>
 <g style="opacity:0.2;enable-background:new" transform="matrix(0.5,0,0,0.5,-234.5,-82.99975)">
  <path d="m 489,183 0,8.1875 c -0.32,-0.12 -0.64,-0.19 -1,-0.19 -1.6568,0 -3,1.3432 -3,3 0,1.6568 1.3432,3 3,3 1.6568,0 3,-1.3432 3,-3 l 0,-7 6,0 0,4.1875 c -0.32,-0.12 -0.64,-0.19 -1,-0.19 -1.6568,0 -3,1.3432 -3,3 0,1.6568 1.3432,3 3,3 1.6568,0 3,-1.3432 3,-3 l 0,-11 -1,0 z"/>
 </g>
 <g style="fill:#3f3f3f;enable-background:new" transform="matrix(0.5,0,0,0.5,-234.5,-83.49975)">
  <path style="fill:#3f3f3f" d="m 489,183 0,8.1875 c -0.32,-0.12 -0.64,-0.19 -1,-0.19 -1.6568,0 -3,1.3432 -3,3 0,1.6568 1.3432,3 3,3 1.6568,0 3,-1.3432 3,-3 l 0,-7 6,0 0,4.1875 c -0.32,-0.12 -0.64,-0.19 -1,-0.19 -1.6568,0 -3,1.3432 -3,3 0,1.6568 1.3432,3 3,3 1.6568,0 3,-1.3432 3,-3 l 0,-11 -1,0 z"/>
 </g>
 <path style="opacity:0.2;fill:#ffffff" d="M 12,2 A 10,10 0 0 0 2,12 10,10 0 0 0 2.0107,12.291 10,10 0 0 1 12,2.5 10,10 0 0 1 21.989,12.209 10,10 0 0 0 22,12 10,10 0 0 0 12,2 Z"/>
 <path style="opacity:0.2" d="M 21.989,12.209 A 10,10 0 0 1 12,22 10,10 0 0 1 2.0107,12.291 10,10 0 0 0 2,12.5 a 10,10 0 0 0 10,10 10,10 0 0 0 10,-10 10,10 0 0 0 -0.01074,-0.29102 z"/>
 <path style="fill:#ffffff;opacity:0.2" d="M 12 5 C 8.122 5 5 8.122 5 12 C 5 12.084525 5.0087769 12.166218 5.0117188 12.25 C 5.1437474 8.4898619 8.2065251 5.5 12 5.5 C 15.793475 5.5 18.856253 8.4898619 18.988281 12.25 C 18.991223 12.166218 19 12.084525 19 12 C 19 8.122 15.878 5 12 5 z"/>
</svg>
